**kern	**kern	**dynam
*part1	*part1	*part1
*staff2	*staff1	*
*I"Piano	*	*
*clefF4	*clefG2	*
*k[b-e-a-]	*k[b-e-a-]	*
*M3/8	*M3/8	*
=1	=1	=1
4.r	4.r	.
=	=	=
*^	*^	*
4.G	(8E-L	(8gL	8cL	mf
.	8D	8bn	8f	.
.	8CJ)	8ccJ)	8e-J	.
*v	*v	*	*	*
*	*v	*v	*
=	=	=
4.r	4.r	.
=	=	=
*^	*^	*
4.B-	(8GL	(8b-XL	8e-L	.
.	8F	8dd	8a-	.
.	8E-J)	8ee-J)	8gJ	.
*v	*v	*	*	*
*	*v	*v	*
=	=	=
8r	8r	.
8r	8r	.
8AA- 8A-	8c 8e- 8cc	.
=	=	=
*	*^	*
8r	8r	8r	.
8GL	8b-'L	4B- 4e-	.
8E-J	8g'J	.	.
=	=	=	=
4A-	(8fL	4c	.
.	8e-)	.	.
8F	8fJ	8d	.
=	=	=	=
4E- 4B-	4g	4e-	.
8E- 8G	8g	8e-	p
*	*v	*v	*
=	=	=
*-	*-	*-
!!!system-decoration: {(s1,s2)}
